.local/share/icons/Gruvbox-Plus-Dark/mimetypes/scalable/gdform.svg

<svg width="256" height="256" viewBox="0 0 256 256" fill="none" xmlns="http://www.w3.org/2000/svg">
<g opacity="0.4" filter="url(#filter0_f)">
<path d="M55.0839 15.5636H155.608L216.009 75.7129L216.011 224.609C216.011 233.52 208.749 240.737 199.838 240.737H55.0838C46.1734 240.737 39 233.564 39 224.654V31.6474C39 22.737 46.1734 15.5636 55.0838 15.5636H55.0839Z" fill="#282828"/>
</g>
<path d="M55.0839 15H155.608L216.009 75.1493L216.011 224.045C216.011 232.956 208.749 240.174 199.838 240.174H55.0838C46.1734 240.174 39 233 39 224.09V31.0838C39 22.1734 46.1734 15 55.0838 15H55.0839Z" fill="#ebdbb2"/>
<path d="M93.7143 80V88.7662H188V80H93.7143ZM93.7143 97.5325V106.299H188V97.5325H93.7143ZM93.7143 115.065V123.831H188V115.065H93.7143ZM93.7143 132.597V141.364H188V132.597H93.7143ZM93.7143 150.13V158.896H188V150.13H93.7143ZM93.7143 167.662V176.429H188V167.662H93.7143ZM68 80H85.1429V88.7662H68V80ZM68 97.5325H85.1429V106.299H68V97.5325ZM68 115.065H85.1429V123.831H68V115.065ZM68 132.597H85.1429V141.364H68V132.597ZM68 150.13H85.1429V158.896H68V150.13ZM68 167.662H85.1429V176.429H68V167.662Z" fill="url(#paint0_linear)"/>
<path fill-rule="evenodd" clip-rule="evenodd" d="M155.608 20.3191H55.0839C49.1112 20.3191 44.3191 25.1111 44.3191 31.0838V224.09C44.3191 230.063 49.1111 234.855 55.0838 234.855H199.838C205.83 234.855 210.692 229.999 210.692 224.046V75.1493L155.608 20.3191ZM155.608 15H55.0839C46.1735 15 39 22.1734 39 31.0838V224.09C39 233 46.1734 240.174 55.0838 240.174H199.838C208.749 240.174 216.011 232.956 216.011 224.045L216.009 75.1493L155.608 15Z" fill="url(#paint1_linear)"/>
<path opacity="0.25" d="M155.608 17V61.2306C155.608 70.141 162.867 77.1605 171.777 77.1605L216.009 77.1493V75.1493L155.608 17Z" fill="#282828"/>
<path d="M155.608 15V59.2306C155.608 68.141 162.867 75.1605 171.777 75.1605L216.009 75.1493L155.608 15Z" fill="url(#paint2_linear)"/>
<defs>
<filter id="filter0_f" x="23.8778" y="0.441412" width="207.255" height="255.418" filterUnits="userSpaceOnUse" color-interpolation-filters="sRGB">
<feFlood flood-opacity="0" result="BackgroundImageFix"/>
<feBlend mode="normal" in="SourceGraphic" in2="BackgroundImageFix" result="shape"/>
<feGaussianBlur stdDeviation="7.5611" result="effect1_foregroundBlur"/>
</filter>
<linearGradient id="paint0_linear" x1="128" y1="80" x2="128" y2="176.429" gradientUnits="userSpaceOnUse">
<stop stop-color="#8ec07c"/>
<stop offset="1" stop-color="#689d6a"/>
</linearGradient>
<linearGradient id="paint1_linear" x1="127.506" y1="15" x2="127.506" y2="240.174" gradientUnits="userSpaceOnUse">
<stop stop-color="#8ec07c"/>
<stop offset="1" stop-color="#689d6a"/>
</linearGradient>
<linearGradient id="paint2_linear" x1="185.808" y1="15" x2="185.808" y2="75.1605" gradientUnits="userSpaceOnUse">
<stop stop-color="#8ec07c"/>
<stop offset="1" stop-color="#689d6a"/>
</linearGradient>
</defs>
</svg>

<svg width="256" height="256" fill="none" version="1.1" viewBox="0 0 256 256" xmlns="http://www.w3.org/2000/svg">
  <path d="m55.08 15h100.5l60.4 60.15 2e-3 148.9c0 8.911-7.262 16.13-16.17 16.13h-144.8c-8.91 0-16.08-7.174-16.08-16.08v-193c0-8.91 7.173-16.08 16.08-16.08h1e-4z" fill="#ebdbb2"/>
  <path d="m93.71 80v8.766h94.29v-8.766h-94.29zm0 17.53v8.766h94.29v-8.766h-94.29zm0 17.53v8.766h94.29v-8.766h-94.29zm0 17.53v8.767h94.29v-8.767h-94.29zm0 17.53v8.766h94.29v-8.766h-94.29zm0 17.53v8.767h94.29v-8.767h-94.29zm-25.71-87.66h17.14v8.766h-17.14v-8.766zm0 17.53h17.14v8.766h-17.14v-8.766zm0 17.53h17.14v8.766h-17.14v-8.766zm0 17.53h17.14v8.767h-17.14v-8.767zm0 17.53h17.14v8.766h-17.14v-8.766zm0 17.53h17.14v8.767h-17.14v-8.767z" fill="url(#paint0_linear)"/>
  <path d="m155.6 20.32h-100.5c-5.973 0-10.76 4.792-10.76 10.76v193c0 5.973 4.792 10.76 10.76 10.76h144.8c5.992 0 10.85-4.856 10.85-10.81v-148.9l-55.08-54.83zm0-5.319h-100.5c-8.91 0-16.08 7.173-16.08 16.08v193c0 8.91 7.173 16.08 16.08 16.08h144.8c8.911 0 16.17-7.218 16.17-16.13l-2e-3 -148.9-60.4-60.15z" clip-rule="evenodd" fill="url(#paint1_linear)" fill-rule="evenodd"/>
  <path d="m155.6 17v44.23c0 8.91 7.259 15.93 16.17 15.93l44.23-0.0112v-2l-60.4-58.15z" fill="#282828" opacity=".25"/>
  <path d="m155.6 15v44.23c0 8.91 7.259 15.93 16.17 15.93l44.23-0.0112-60.4-60.15z" fill="url(#paint2_linear)"/>
  <defs>
    <linearGradient id="paint0_linear" x1="128" x2="128" y1="80" y2="176.4" gradientUnits="userSpaceOnUse">
      <stop stop-color="#8ec07c" offset="0"/>
      <stop stop-color="#689d6a" offset="1"/>
    </linearGradient>
    <linearGradient id="paint1_linear" x1="127.5" x2="127.5" y1="15" y2="240.2" gradientUnits="userSpaceOnUse">
      <stop stop-color="#8ec07c" offset="0"/>
      <stop stop-color="#689d6a" offset="1"/>
    </linearGradient>
    <linearGradient id="paint2_linear" x1="185.8" x2="185.8" y1="15" y2="75.16" gradientUnits="userSpaceOnUse">
      <stop stop-color="#8ec07c" offset="0"/>
      <stop stop-color="#689d6a" offset="1"/>
    </linearGradient>
  </defs>
</svg>
